X:1
T:SANTA CLAUS
T:SANTA CLAUS
T:March-Two Step
T:Fred Vokoun
T:Copyright, 1909 by SAM FOX PUBLISHING CO.
T:Copyright, 1909 by SAM FOX PUBLISHING CO.
T:Copyright, 1909 by SAM FOX PUBLISHING CO.
T:Copyright, 1909 by SAM FOX PUBLISHING CO.
C:Fred Vokoun
Z:Copyright, 1909 by SAM FOX PUBLISHING CO.
%%score { ( 1 3 ) | ( 2 4 ) }
L:1/8
Q:1/4=170
M:2/2
K:C
V:1 treble nm="Piano" snm="Pno."
V:3 treble 
V:2 bass 
V:4 bass 
V:1
!ff! G2 B4 A2 | G2 d4"^To Win. J. Schwarz Bosotn. Mass. (A Prince of Good fellows)" c2 | %2
 B2 [Ff]2 [Dd]2 [B,B]2 | [G,G]2 z2!p! [EG][EG][EG][EG] |:!p! [EG]2 [EGe]2 [EGd]2 [EGc]2 | %5
 [EGB]2 [EGc]2 [EG]2 [EA]2 | !>![EA]3 [EG] [EG]2 [EG]2 | [EG]3 z!p! [EG][EG][EG][EG] | %8
 [EG]2 [EGe]2 [EGd]2 [EGc]2 | [EGB]2 [EGc]2 [EG]2 [EA]2 | !>![Fc]3 [FB] [FB]2 [Fd]2 | %11
 F3 z [FG][FG][FG][FG] | [FG]2 [FB]4 [Fc]2 | [Fd]3 z [FG][FG][FG][FG] | [EG]2 [Ec]4 [Ed]2 | %15
 [Ee]6 _e2 | d3 B G2 A2 | B3 G ^F2 E2 | D2 ^D2 E2 B2 |1 G2 z2!p! [EG][EG][EG][EG] :|2 %20
 G2 z (G A3 E) |:!f! F6 [FG]2 | (([FA]2 [FB]2)) [FG]3 e | [Ed]2 z2 !>![Ec]4- | %24
 [Ec]2 E2!p! (A2 E2) | [DF][DF][DF][DF] [DF]2 [Fc]2 | [DFB]6 [FA]2 | %27
 [CE][CE][CE][CE] [CE]2 [CEc]2 | [CEA]2 z (G A3 E) | F6 [FG]2 | [FA]2 [DB]2 [FG]3 e | %31
 [Ed]2 z2 [Ec]4- | [Ec]2 c2 B2 [^FA]2 | G2 GG G2 EG | c2 Gc e2 ce | g2 [FGB]4 [FGB]2 |1 %36
 [Ec]2 z (G A3 E) :|2 [Ec]2 z2 C4 ||[K:F][M:2/2]!p! (A2 E2) (F2 G2) | ([FA]4 [Fd]4) | %40
 [Fd]4 [FA]4- | [FA]2 z2 C4 | (A2 E2) (F2 G2) | [FA]4 [Fd]4 | [Ed]4 [EB]4- | [EB]2 z2 A4 | %46
{/A} G2 ^F2 G4- | G2 z2 A4 | F2 E2 F4- | F2 z2 B4 | G2 A2 =B2 c2 | d4 g4 | c8- | c2 z2 C4 | %54
 (A2 E2) (F2 G2) | [FA]4 [Fd]4 | d4 A4- | A2 z2 G4 |!<(! F3 G A2 B2!<)! | [Fc]4 [F^c]4 | [Fd]8- | %61
 [Fd]2 z2 !>!B4 |{/A} G2 ^F2 G4- | G2 (G2 A2 B2) | c4 d4- | d2 (B2 G2 B2) | A2 c4 _A2 | G4 C4 | %68
 F8- | F2 z2 D2 E2 ||!ff! F6 E2 | D6 [A,^CE]2 | [A,DF]3 ^G A2 B2 | A2 z2 C2 D2 | E6 D2 | %75
 C6 [G,=B,D]2 | [G,CE]3 ^F G2 A2 | ^G2 cc c2 c2 | B6 A2 | G6 F2 | E2 F2 ^F2 G2 | C2 cc c2 c2 | %82
 g6 f2 | e6 d2 | c2 d2 ^d2 e2 | c2 z2 !>![Cc]4 || [Aca]2 [Ee]2 [Ff]2 [Gg]2 | [Aa]4 [dfd']4 | %88
 [dfd']4 [Afa]4- | [Afa]4 [Cc]4 | [Aca]2 [Ee]2 [Ff]2 [Gg]2 | [Aca]4 [dfd']4 | [ebd']4 [Beb]4- | %93
 [Beb]2 z2 [Aa]4 | [Gg]2 [^F^f]2 [Gg]4- | [Gg]2 z2 [Aa]4 | [Ff]2 [Ee]2 [Ff]4- | [Ff]2 z2 [Aa]4 | %98
 [Gg]2 [Aa]2 [=B=b]2 [cc']2 | [dd']4 [gg']4 | [cec']4- [cec']4- | [cec']2 z2 [Cc]4 | %102
 [Aca]2 [Ee]2 [Ff]2 [Gg]2 | [Aa]4 [dfd']4 | [dfd']4 [Afa]4- | [Afa]2 z2 [Cc]4 | %106
 [Ff]3 [Gg] [Aa]2 [Bb]2 | [cfc']4 [^cf^c']4 | [dfd']8- | [dfd']2 z2 [Bb]4 | %110
{/a} [cg]2 [c^f]2 [cg]4- | [cg]2 [cg]2 [ca]2 [cb]2 | [cc']4 [dfd']4- | [dfd']2 [Bb]2 [Gg]2 [Bb]2 | %114
 [Aa]2 [cc']4 [Aa]2 | [Gg]4 [Cc]4 | [FAf]8- | [FAf]2 z2 !>![faf']2 z2 || %118
V:2
 [G,,G,]2 [B,,B,]4 [A,,A,]2 | [G,,G,]2 [D,D]4 [C,C]2 | [B,,B,]2 F,2 D,2 B,,2 | G,,2 z2 z4 |: %4
 C,2 [E,G,]2 G,,2 [E,G,]2 | C,2 [E,G,]2 G,,2 [E,G,]2 | C,2 [E,G,]2 G,,2 [E,G,]2 | %7
 C,2 G,,2 A,,2 B,,2 | C,2 [E,G,]2 G,,2 [E,G,]2 | C,2 [E,G,]2 G,,2 [E,G,]2 | %10
 D,2 [F,A,B,]2 G,,2 [F,A,B,]2 | D,2 [F,A,B,]2 G,,2 [F,A,B,]2 | D,2 [F,A,B,]2 G,,2 [F,A,B,]2 | %13
 D,2 G,,2 A,,2 B,,2 | C,2 [E,G,]2 G,,2 [E,G,]2 | C,2 [E,G,]2 [E,G,]2 [^C,G,_B,]2 | %16
 [D,G,=B,]3 B, G,2 A,2 | B,3 G, ^F,2 E,2 | D,2 [^F,A,C]2 D,2 [F,A,C]2 |1 [G,B,]2 z2 z4 :|2 %20
 [G,B,]2 z2 z4 |: D,2 [F,A,B,]2 G,,2 [F,A,B,]2 | D,2 [F,A,B,]2 G,,2 [F,A,B,]2 | %23
 C,2 [E,G,]2 G,,2 [E,G,]2 | C,2 [E,G,]2 G,,2 [E,G,]2 | D,2 [F,A,B,]2 G,,2 [F,A,B,]2 | %26
 D,2 [F,A,B,]2 G,,2 [F,A,B,]2 | C,2 [E,G,]2 G,,2 [E,G,]2 | [C,E,]2 z2 z4 | %29
 D,2 [F,A,B,]2 G,,2 [F,A,B,]2 | D,2 [F,A,B,]2 G,,2 [F,A,B,]2 | C,2 [E,G,]2 G,,2 [E,G,]2 | %32
 ^F,2 [A,C_E]2 F,2 [A,CE]2 | [G,C=E]2 z2 z4 | z8 | G,,4 G,4 |1 [C,G,]2 z2 z4 :|2 [C,G,]2 z2 z4 || %38
[K:F][M:2/2] F,2 [A,C]2 C,2 [A,C]2 | F,2 [A,C]2 C,2 [A,C]2 | F,2 [A,C]2 C,2 [A,C]2 | %41
 F,2 [A,C]2 C,2 [A,C]2 | F,2 [A,C]2 C,2 [A,C]2 | F,2 [A,C]2 C,2 [A,C]2 | G,2 [B,C]2 C,2 [B,C]2 | %45
 G,2 [B,CE]2 C,2 [B,CE]2 | E,2 [B,C]2 C,2 [B,C]2 | E,2 [B,C]2 C,2 [B,C]2 | F,2 [A,C]2 C,2 [A,C]2 | %49
 F,2 [A,C]2 ^F,2 [C_E]2 | G,2 [C=E]2 G,2 [CE]2 | G,2 [=B,F]2 G,2 [B,F]2 | C3 D E2 D2 | %53
 C2 _B,2 A,2 G,2 | F,2 [A,C]2 C,2 [A,C]2 | F,2 [A,C]2 C,2 [A,C]2 | F,2 [A,C]2 C,2 [A,C]2 | %57
 F,2 [A,C]2 C,2 [A,C]2 | F,2 [A,C]2 C,2 [A,C]2 | F,2 [A,_E]2 F,2 [A,E]2 | B,2 D2 A,2 [B,D]2 | %61
 G,2 [B,D]2 F,2 [B,D]2 | E,2 [G,B,C]2 C,2 [G,B,C]2 | E,2 [G,B,C]2 C,2 [G,B,C]2 | %64
 F,2 [A,C]2 B,2 D2 | G,2 [B,D]2 B,,2 [D,G,]2 | C,2 [F,A,]2 C,2 [F,A,]2 | C,2 [E,B,]2 C,2 [E,B,]2 | %68
 F,3 D, C,2 A,,2 | F,,2 z2 z4 || D,6 A,,2 | z2 [F,A,]2 [F,A,]2 x2 | D,3 ^G, A,2 B,2 | A,2 z2 z4 | %74
 C,2 z2 z2 G,,2 | z2 [E,G,]2 [E,G,]2 G,,2 | [C,E,]3 ^F, G,2 A,2 | ^G,2 z2 z4 | G,6 F,2 | E,6 D,2 | %80
 C,2 D,2 ^D,2 E,2 | C,2 z2 z4 | B,6 A,2 | G,6 F,2 | E,2 F,2 ^F,2 G,2 | C2 z2 C,4 || %86
 [F,,F,]2 [F,A,C]2 [C,,C,]2 [F,A,C]2 | [F,,F,]2 [F,A,C]2 [C,,C,]2 [F,A,C]2 | %88
 [F,,F,]2 [F,A,C]2 [C,,C,]2 [F,A,C]2 | [F,,F,]2 [F,A,C]2 [C,,C,]2 [F,A,C]2 | %90
 [F,,F,]2 [F,A,C]2 [C,,C,]2 [F,A,C]2 | [F,,F,]2 [F,A,C]2 [C,,C,]2 [F,A,C]2 | %92
 [G,,G,]2 [B,CE]2 [C,,C,]2 [B,CE]2 | [G,,G,]2 [B,CE]2 [C,,C,]2 [B,CE]2 | %94
 [E,,E,]2 [B,CE]2 [C,,C,]2 [B,CE]2 | [E,,E,]2 [B,CE]2 [C,,C,]2 [B,CE]2 | %96
 [F,,F,]2 [F,A,C]2 [C,,C,]2 [F,A,C]2 | [F,,F,]2 [A,C]2 [^F,,^F,]2 [C_E]2 | %98
 [G,,G,]2 [C=E]2 [G,,G,]2 [G,CE]2 | [G,,G,]2 [G,=B,F]2 [G,,G,]2 [G,B,F]2 | %100
 [C,C]3 [D,D] [E,E]2 [D,D]2 | [C,C]2 [_B,,_B,]2 [A,,A,]2 [G,,G,]2 | %102
 [F,,F,]2 [F,A,C]2 [C,,C,]2 [F,A,C]2 | [F,,F,]2 [F,A,C]2 [C,,C,]2 [F,A,C]2 | %104
 [F,,F,]2 [F,A,C]2 [C,,C,]2 [F,A,C]2 | [F,,F,]2 [F,A,C]2 [C,,C,]2 [F,A,C]2 | %106
 [F,,F,]2 [F,A,C]2 [C,,C,]2 [F,A,C]2 | [F,,F,]2 [A,_E]2 [F,,F,]2 [A,E]2 | %108
 [B,,B,]2 [DF]2 [A,,A,]2 [B,D]2 | [G,,G,]2 [B,D]2 [F,,F,]2 [B,D]2 | %110
 [E,,E,]2 [G,B,C]2 [C,,C,]2 [G,B,C]2 | [E,,E,]2 [G,B,C]2 [C,,C,]2 [G,B,C]2 | %112
 [F,,F,]2 [A,C]2 [B,,B,]2 [DF]2 | [G,,G,]2 [DG]2 [B,,,B,,]2 [D,G,]2 | %114
 [C,,C,]2 [F,A,]2 [C,,C,]2 [F,A,]2 | [C,,C,]2 [E,B,]2 [C,,C,]2 [E,B,]2 | %116
 [F,,F,]3 [D,,D,] [C,,C,]2 [A,,,A,,]2 | [F,,,F,,]2 z2 !>![F,,,F,,]2 z2 || %118
V:3
 x8 | x8 | x8 | x8 |: x8 | x8 | x8 | x8 | x8 | x8 | x8 | x8 | x8 | x8 | x8 | x8 | x8 | x8 | x8 |1 %19
 x8 :|2 x8 |: x8 | x8 | x8 | x8 | x8 | x8 | x8 | x8 | x8 | x8 | x8 | x8 | x8 | x8 | x8 |1 x8 :|2 %37
 x8 ||[K:F][M:2/2] x8 | x8 | x8 | x8 | x8 | x8 | x8 | x8 | x8 | x8 | x8 | x8 | x8 | x8 | x8 | x8 | %54
 x8 | x8 | x8 | x8 | x8 | x8 | x8 | x8 | x8 | x8 | x8 | x8 | x8 | x8 | x8 | x8 || %70
 z2 [A,D]2 [A,D]2 [A,^C]2 | x8 | x8 | x8 | z2 [G,C]2 [G,C]2 [G,=B,]2 | x8 | x8 | x8 | %78
 z2 [CE]2 [CE]2 z2 | z2 [B,C]2 [B,C]2 z2 | [B,C]4 [B,C]4 | x8 | z2 [ce]2 [ce]2 z2 | %83
 z2 [Bc]2 [Bc]2 z2 | B4 [Bc]4 | [EB]2 x6 || x8 | x8 | x8 | x8 | x8 | x8 | x8 | x8 | x8 | x8 | x8 | %97
 x8 | x8 | x8 | x8 | x8 | x8 | x8 | x8 | x8 | x8 | x8 | x8 | x8 | x8 | x8 | x8 | x8 | x8 | x8 | %116
 x8 | x8 || %118
V:4
 x8 | x8 | x8 | x8 |: x8 | x8 | x8 | x8 | x8 | x8 | x8 | x8 | x8 | x8 | x8 | x8 | x8 | x8 | x8 |1 %19
 x8 :|2 x8 |: x8 | x8 | x8 | x8 | x8 | x8 | x8 | x8 | x8 | x8 | x8 | x8 | x8 | x8 | x8 |1 x8 :|2 %37
 x8 ||[K:F][M:2/2] x8 | x8 | x8 | x8 | x8 | x8 | x8 | x8 | x8 | x8 | x8 | x8 | x8 | x8 | x8 | x8 | %54
 x8 | x8 | x8 | x8 | x8 | x8 | x8 | x8 | x8 | x8 | x8 | x8 | x8 | x8 | x8 | x8 || x8 | D,6 A,,2 | %72
 x8 | x8 | x8 | C,2 x6 | x8 | x8 | x8 | x8 | x8 | x8 | x8 | x8 | x8 | x8 || x8 | x8 | x8 | x8 | %90
 x8 | x8 | x8 | x8 | x8 | x8 | x8 | x8 | x8 | x8 | x8 | x8 | x8 | x8 | x8 | x8 | x8 | x8 | x8 | %109
 x8 | x8 | x8 | x8 | x8 | x8 | x8 | x8 | x8 || %118

